img/delete.svg

<svg width="16" height="16" viewBox="0 0 16 16" fill="none" xmlns="http://www.w3.org/2000/svg">
<path fill-rule="evenodd" clip-rule="evenodd" d="M4.83398 2.49967C4.83398 1.5792 5.58018 0.833008 6.50065 0.833008H9.50065C10.4211 0.833008 11.1673 1.5792 11.1673 2.49967V2.83301H14.5007C14.8688 2.83301 15.1673 3.13148 15.1673 3.49967C15.1673 3.86786 14.8688 4.16634 14.5007 4.16634H13.6673V12.4997C13.6673 13.9724 12.4734 15.1663 11.0007 15.1663H5.00065C3.52789 15.1663 2.33398 13.9724 2.33398 12.4997V4.16634H1.50065C1.13246 4.16634 0.833984 3.86786 0.833984 3.49967C0.833984 3.13148 1.13246 2.83301 1.50065 2.83301H4.83398V2.49967ZM6.16732 2.83301H9.83398V2.49967C9.83398 2.31558 9.68475 2.16634 9.50065 2.16634H6.50065C6.31656 2.16634 6.16732 2.31558 6.16732 2.49967V2.83301ZM3.66732 4.16634V12.4997C3.66732 13.2361 4.26427 13.833 5.00065 13.833H11.0007C11.737 13.833 12.334 13.2361 12.334 12.4997V4.16634H3.66732ZM8.00065 5.33301C8.36884 5.33301 8.66732 5.63148 8.66732 5.99967L8.66732 11.9997C8.66732 12.3679 8.36884 12.6663 8.00065 12.6663C7.63246 12.6663 7.33399 12.3679 7.33399 11.9997L7.33398 5.99967C7.33398 5.63148 7.63246 5.33301 8.00065 5.33301Z" fill="#787A80"/>
</svg>

<svg width="16" height="16" fill="none" xmlns="http://www.w3.org/2000/svg"><path fill-rule="evenodd" clip-rule="evenodd" d="M4.834 2.5c0-.92.746-1.667 1.667-1.667h3c.92 0 1.666.746 1.666 1.667v.333h3.334a.667.667 0 010 1.333h-.834V12.5a2.667 2.667 0 01-2.666 2.666H5A2.667 2.667 0 012.334 12.5V4.166h-.833a.667.667 0 010-1.333h3.333V2.5zm1.333.333h3.667V2.5a.333.333 0 00-.333-.334h-3a.333.333 0 00-.334.334v.333zm-2.5 1.333V12.5c0 .736.597 1.333 1.334 1.333h6c.736 0 1.333-.597 1.333-1.333V4.166H3.667zm4.334 1.167c.368 0 .666.298.666.667v6a.667.667 0 01-1.333 0V6c0-.369.298-.667.667-.667z" fill="#787A80"/></svg>
